app/assets/images/icons/active/insurance--line.svg

<?xml version="1.0" encoding="UTF-8" standalone="no"?>
<svg width="32px" height="232px" viewBox="0 0 32 232" version="1.1" xmlns="http://www.w3.org/2000/svg" xmlns:xlink="http://www.w3.org/1999/xlink" xmlns:sketch="http://www.bohemiancoding.com/sketch/ns">
    <title>insurance-line</title>
    <description>Created with Sketch (http://www.bohemiancoding.com/sketch)</description>
    <defs></defs>
    <g id="Categories" stroke="none" stroke-width="1" fill="none" fill-rule="evenodd" sketch:type="MSPage">
        <path d="M16.2872406,125.571 L16.5642985,125.598 C19.7589057,125.909 22.4371325,127.09 24.5284731,129.114 C25.3675912,129.924 26.3209089,131.082 27.0418553,132.626 C26.8839621,132.614 26.7240828,132.608 26.5632104,132.608 C25.2792107,132.608 24.0567794,133.03 23.1123991,133.805 C23.0776428,133.833 23.0448725,133.864 23.0111091,133.894 C22.0289933,133.104 20.6864043,132.636 19.311045,132.636 C18.0002332,132.636 16.8353982,133.069 15.9734402,133.852 C15.0757327,133.067 13.8106008,132.672 12.9079281,132.592 C12.7381184,132.576 12.5712878,132.57 12.4084294,132.57 C11.1005967,132.57 9.85433249,133.044 8.88413317,133.886 C7.94173895,133.069 6.67859306,132.618 5.32706668,132.618 C5.18804119,132.618 5.05100178,132.623 4.91396237,132.632 C4.9427605,132.576 4.9705656,132.518 4.99936374,132.459 C7.0341011,128.381 10.5117245,126.093 15.335909,125.657 L16.2872406,125.571 M15.9913149,122 C15.3736445,122 14.8820901,122.738 15.1700714,123.792 C9.31114004,124.322 5.47403649,127.338 3.33800912,131.62 C2.62202784,133.055 1.92888647,134.727 1.9854897,136.611 C2.44526686,136.149 2.56641765,135.653 3.05797206,135.25 C3.67564246,134.743 4.50085805,134.491 5.32706668,134.491 C6.19001777,134.491 7.05098277,134.764 7.67659748,135.309 C8.02515425,135.613 8.35881543,136.615 8.904987,136.615 C8.92683386,136.615 8.94967376,136.614 8.97152063,136.611 C9.29922357,136.567 9.52563651,135.914 9.70438357,135.707 C10.2912698,135.009 11.2237336,134.442 12.4084294,134.442 C12.5176637,134.442 12.6308702,134.446 12.7440766,134.457 C13.6487354,134.537 14.9744427,135.118 15.1700714,135.875 C15.3587489,136.623 15.1700714,137.739 15.1700714,138.655 L15.1700714,144.215 C15.1700714,145.12 15.3140621,146.188 15.1134682,146.938 C14.8612362,147.883 14.0002712,148.351 13.1412923,148.351 C12.3319654,148.351 11.5216453,147.936 11.2237336,147.11 C10.9605782,146.373 11.1502487,145.697 10.4938498,145.577 C10.3895806,145.557 10.2932558,145.549 10.2068614,145.549 C8.68453229,145.549 10.0857106,148.412 10.3796502,148.752 C10.9427035,149.41 11.9754643,150 13.1154733,150 L13.1373202,150 C15.1879462,149.991 16.5811802,148.434 16.7430456,146.655 C17.0528738,143.327 16.5136535,139.505 16.7430456,135.819 C17.3051058,134.892 18.2961589,134.508 19.311045,134.508 C20.4629705,134.508 21.6456802,135.003 22.2633506,135.762 C22.5692067,136.134 22.5870814,136.612 23.0260047,136.612 C23.0349421,136.612 23.0448725,136.611 23.0538098,136.611 C23.5374199,136.595 23.9256983,135.556 24.2951089,135.25 C24.9266818,134.732 25.7459392,134.48 26.5622174,134.48 C27.4261615,134.48 28.2851404,134.762 28.9127412,135.309 C29.3844349,135.719 29.4718223,136.229 29.9822445,136.611 C29.6644719,132.843 27.996166,129.87 25.8164449,127.763 C23.6099118,125.628 20.602989,124.109 16.7430456,123.735 C16.7211987,123.268 16.803621,122.694 16.6904145,122.318 C16.4620155,122.1 16.2177278,122 15.9913149,122" id="insurance-line--lp-blue" fill="#206FAC" sketch:type="MSShapeGroup"></path>
        <path d="M16.2872406,85.571 L16.5642985,85.598 C19.7589057,85.909 22.4371325,87.09 24.5284731,89.114 C25.3675912,89.924 26.3209089,91.082 27.0418553,92.626 C26.8839621,92.614 26.7240828,92.608 26.5632104,92.608 C25.2792107,92.608 24.0567794,93.03 23.1123991,93.805 C23.0776428,93.833 23.0448725,93.864 23.0111091,93.894 C22.0289933,93.104 20.6864043,92.636 19.311045,92.636 C18.0002332,92.636 16.8353982,93.069 15.9734402,93.852 C15.0757327,93.067 13.8106008,92.672 12.9079281,92.592 C12.7381184,92.576 12.5712878,92.57 12.4084294,92.57 C11.1005967,92.57 9.85433249,93.044 8.88413317,93.886 C7.94173895,93.069 6.67859306,92.618 5.32706668,92.618 C5.18804119,92.618 5.05100178,92.623 4.91396237,92.632 C4.9427605,92.576 4.9705656,92.518 4.99936374,92.459 C7.0341011,88.381 10.5117245,86.093 15.335909,85.657 L16.2872406,85.571 M15.9913149,82 C15.3736445,82 14.8820901,82.738 15.1700714,83.792 C9.31114004,84.322 5.47403649,87.338 3.33800912,91.62 C2.62202784,93.055 1.92888647,94.727 1.9854897,96.611 C2.44526686,96.149 2.56641765,95.653 3.05797206,95.25 C3.67564246,94.743 4.50085805,94.491 5.32706668,94.491 C6.19001777,94.491 7.05098277,94.764 7.67659748,95.309 C8.02515425,95.613 8.35881543,96.615 8.904987,96.615 C8.92683386,96.615 8.94967376,96.614 8.97152063,96.611 C9.29922357,96.567 9.52563651,95.914 9.70438357,95.707 C10.2912698,95.009 11.2237336,94.442 12.4084294,94.442 C12.5176637,94.442 12.6308702,94.446 12.7440766,94.457 C13.6487354,94.537 14.9744427,95.118 15.1700714,95.875 C15.3587489,96.623 15.1700714,97.739 15.1700714,98.655 L15.1700714,104.215 C15.1700714,105.12 15.3140621,106.188 15.1134682,106.938 C14.8612362,107.883 14.0002712,108.351 13.1412923,108.351 C12.3319654,108.351 11.5216453,107.936 11.2237336,107.11 C10.9605782,106.373 11.1502487,105.697 10.4938498,105.577 C10.3895806,105.557 10.2932558,105.549 10.2068614,105.549 C8.68453229,105.549 10.0857106,108.412 10.3796502,108.752 C10.9427035,109.41 11.9754643,110 13.1154733,110 L13.1373202,110 C15.1879462,109.991 16.5811802,108.434 16.7430456,106.655 C17.0528738,103.327 16.5136535,99.505 16.7430456,95.819 C17.3051058,94.892 18.2961589,94.508 19.311045,94.508 C20.4629705,94.508 21.6456802,95.003 22.2633506,95.762 C22.5692067,96.134 22.5870814,96.612 23.0260047,96.612 C23.0349421,96.612 23.0448725,96.611 23.0538098,96.611 C23.5374199,96.595 23.9256983,95.556 24.2951089,95.25 C24.9266818,94.732 25.7459392,94.48 26.5622174,94.48 C27.4261615,94.48 28.2851404,94.762 28.9127412,95.309 C29.3844349,95.719 29.4718223,96.229 29.9822445,96.611 C29.6644719,92.843 27.996166,89.87 25.8164449,87.763 C23.6099118,85.628 20.602989,84.109 16.7430456,83.735 C16.7211987,83.268 16.803621,82.694 16.6904145,82.318 C16.4620155,82.1 16.2177278,82 15.9913149,82" id="insurance-line--white" fill="#FFFFFF" sketch:type="MSShapeGroup"></path>
        <path d="M16.2872406,45.571 L16.5642985,45.598 C19.7589057,45.909 22.4371325,47.09 24.5284731,49.114 C25.3675912,49.924 26.3209089,51.082 27.0418553,52.626 C26.8839621,52.614 26.7240828,52.608 26.5632104,52.608 C25.2792107,52.608 24.0567794,53.03 23.1123991,53.805 C23.0776428,53.833 23.0448725,53.864 23.0111091,53.894 C22.0289933,53.104 20.6864043,52.636 19.311045,52.636 C18.0002332,52.636 16.8353982,53.069 15.9734402,53.852 C15.0757327,53.067 13.8106008,52.672 12.9079281,52.592 C12.7381184,52.576 12.5712878,52.57 12.4084294,52.57 C11.1005967,52.57 9.85433249,53.044 8.88413317,53.886 C7.94173895,53.069 6.67859306,52.618 5.32706668,52.618 C5.18804119,52.618 5.05100178,52.623 4.91396237,52.632 C4.9427605,52.576 4.9705656,52.518 4.99936374,52.459 C7.0341011,48.381 10.5117245,46.093 15.335909,45.657 L16.2872406,45.571 M15.9913149,42 C15.3736445,42 14.8820901,42.738 15.1700714,43.792 C9.31114004,44.322 5.47403649,47.338 3.33800912,51.62 C2.62202784,53.055 1.92888647,54.727 1.9854897,56.611 C2.44526686,56.149 2.56641765,55.653 3.05797206,55.25 C3.67564246,54.743 4.50085805,54.491 5.32706668,54.491 C6.19001777,54.491 7.05098277,54.764 7.67659748,55.309 C8.02515425,55.613 8.35881543,56.615 8.904987,56.615 C8.92683386,56.615 8.94967376,56.614 8.97152063,56.611 C9.29922357,56.567 9.52563651,55.914 9.70438357,55.707 C10.2912698,55.009 11.2237336,54.442 12.4084294,54.442 C12.5176637,54.442 12.6308702,54.446 12.7440766,54.457 C13.6487354,54.537 14.9744427,55.118 15.1700714,55.875 C15.3587489,56.623 15.1700714,57.739 15.1700714,58.655 L15.1700714,64.215 C15.1700714,65.12 15.3140621,66.188 15.1134682,66.938 C14.8612362,67.883 14.0002712,68.351 13.1412923,68.351 C12.3319654,68.351 11.5216453,67.936 11.2237336,67.11 C10.9605782,66.373 11.1502487,65.697 10.4938498,65.577 C10.3895806,65.557 10.2932558,65.549 10.2068614,65.549 C8.68453229,65.549 10.0857106,68.412 10.3796502,68.752 C10.9427035,69.41 11.9754643,70 13.1154733,70 L13.1373202,70 C15.1879462,69.991 16.5811802,68.434 16.7430456,66.655 C17.0528738,63.327 16.5136535,59.505 16.7430456,55.819 C17.3051058,54.892 18.2961589,54.508 19.311045,54.508 C20.4629705,54.508 21.6456802,55.003 22.2633506,55.762 C22.5692067,56.134 22.5870814,56.612 23.0260047,56.612 C23.0349421,56.612 23.0448725,56.611 23.0538098,56.611 C23.5374199,56.595 23.9256983,55.556 24.2951089,55.25 C24.9266818,54.732 25.7459392,54.48 26.5622174,54.48 C27.4261615,54.48 28.2851404,54.762 28.9127412,55.309 C29.3844349,55.719 29.4718223,56.229 29.9822445,56.611 C29.6644719,52.843 27.996166,49.87 25.8164449,47.763 C23.6099118,45.628 20.602989,44.109 16.7430456,43.735 C16.7211987,43.268 16.803621,42.694 16.6904145,42.318 C16.4620155,42.1 16.2177278,42 15.9913149,42" id="insurance-line--body-grey" fill="#67737B" sketch:type="MSShapeGroup"></path>
        <path d="M16.2872406,5.571 L16.5642985,5.598 C19.7589057,5.909 22.4371325,7.09 24.5284731,9.114 C25.3675912,9.924 26.3209089,11.082 27.0418553,12.626 C26.8839621,12.614 26.7240828,12.608 26.5632104,12.608 C25.2792107,12.608 24.0567794,13.03 23.1123991,13.805 C23.0776428,13.833 23.0448725,13.864 23.0111091,13.894 C22.0289933,13.104 20.6864043,12.636 19.311045,12.636 C18.0002332,12.636 16.8353982,13.069 15.9734402,13.852 C15.0757327,13.067 13.8106008,12.672 12.9079281,12.592 C12.7381184,12.576 12.5712878,12.57 12.4084294,12.57 C11.1005967,12.57 9.85433249,13.044 8.88413317,13.886 C7.94173895,13.069 6.67859306,12.618 5.32706668,12.618 C5.18804119,12.618 5.05100178,12.623 4.91396237,12.632 C4.9427605,12.576 4.9705656,12.518 4.99936374,12.459 C7.0341011,8.381 10.5117245,6.093 15.335909,5.657 L16.2872406,5.571 M15.9913149,2 C15.3736445,2 14.8820901,2.738 15.1700714,3.792 C9.31114004,4.322 5.47403649,7.338 3.33800912,11.62 C2.62202784,13.055 1.92888647,14.727 1.9854897,16.611 C2.44526686,16.149 2.56641765,15.653 3.05797206,15.25 C3.67564246,14.743 4.50085805,14.491 5.32706668,14.491 C6.19001777,14.491 7.05098277,14.764 7.67659748,15.309 C8.02515425,15.613 8.35881543,16.615 8.904987,16.615 C8.92683386,16.615 8.94967376,16.614 8.97152063,16.611 C9.29922357,16.567 9.52563651,15.914 9.70438357,15.707 C10.2912698,15.009 11.2237336,14.442 12.4084294,14.442 C12.5176637,14.442 12.6308702,14.446 12.7440766,14.457 C13.6487354,14.537 14.9744427,15.118 15.1700714,15.875 C15.3587489,16.623 15.1700714,17.739 15.1700714,18.655 L15.1700714,24.215 C15.1700714,25.12 15.3140621,26.188 15.1134682,26.938 C14.8612362,27.883 14.0002712,28.351 13.1412923,28.351 C12.3319654,28.351 11.5216453,27.936 11.2237336,27.11 C10.9605782,26.373 11.1502487,25.697 10.4938498,25.577 C10.3895806,25.557 10.2932558,25.549 10.2068614,25.549 C8.68453229,25.549 10.0857106,28.412 10.3796502,28.752 C10.9427035,29.41 11.9754643,30 13.1154733,30 L13.1373202,30 C15.1879462,29.991 16.5811802,28.434 16.7430456,26.655 C17.0528738,23.327 16.5136535,19.505 16.7430456,15.819 C17.3051058,14.892 18.2961589,14.508 19.311045,14.508 C20.4629705,14.508 21.6456802,15.003 22.2633506,15.762 C22.5692067,16.134 22.5870814,16.612 23.0260047,16.612 C23.0349421,16.612 23.0448725,16.611 23.0538098,16.611 C23.5374199,16.595 23.9256983,15.556 24.2951089,15.25 C24.9266818,14.732 25.7459392,14.48 26.5622174,14.48 C27.4261615,14.48 28.2851404,14.762 28.9127412,15.309 C29.3844349,15.719 29.4718223,16.229 29.9822445,16.611 C29.6644719,12.843 27.996166,9.87 25.8164449,7.763 C23.6099118,5.628 20.602989,4.109 16.7430456,3.735 C16.7211987,3.268 16.803621,2.694 16.6904145,2.318 C16.4620155,2.1 16.2177278,2 15.9913149,2" id="insurance-line--title-grey" fill="#3A434E" sketch:type="MSShapeGroup"></path>
    </g>
</svg>

<svg width="32" height="232" viewBox="0 0 32 232" xmlns="http://www.w3.org/2000/svg" xmlns:sketch="http://www.bohemiancoding.com/sketch/ns"><title>insurance-line</title><g sketch:type="MSPage" fill="none"><path d="M16.287 125.571l.277.027c3.195.311 5.873 1.492 7.964 3.516.839.81 1.792 1.968 2.513 3.512l-.479-.018c-1.284 0-2.506.422-3.451 1.197l-.101.089c-.982-.79-2.325-1.258-3.7-1.258-1.311 0-2.476.433-3.338 1.216-.898-.785-2.163-1.18-3.066-1.26-.17-.016-.337-.022-.499-.022-1.308 0-2.554.474-3.524 1.316-.942-.817-2.206-1.268-3.557-1.268l-.413.014.085-.173c2.035-4.078 5.512-6.366 10.337-6.802l.951-.086m-.296-3.571c-.618 0-1.109.738-.821 1.792-5.859.53-9.696 3.546-11.832 7.828-.716 1.435-1.409 3.107-1.353 4.991.46-.462.581-.958 1.072-1.361.618-.507 1.443-.759 2.269-.759.863 0 1.724.273 2.35.818.349.304.682 1.306 1.228 1.306l.067-.004c.328-.044.554-.697.733-.904.587-.698 1.519-1.265 2.704-1.265l.336.015c.905.08 2.23.661 2.426 1.418.189.748 0 1.864 0 2.78v5.56c0 .905.144 1.973-.057 2.723-.252.945-1.113 1.413-1.972 1.413-.809 0-1.62-.415-1.918-1.241-.263-.737-.073-1.413-.73-1.533l-.287-.028c-1.522 0-.121 2.863.173 3.203.563.658 1.596 1.248 2.736 1.248h.022c2.051-.009 3.444-1.566 3.606-3.345.31-3.328-.229-7.15 0-10.836.562-.927 1.553-1.311 2.568-1.311 1.152 0 2.335.495 2.952 1.254.306.372.324.85.763.85l.028-.001c.484-.016.872-1.055 1.241-1.361.632-.518 1.451-.77 2.267-.77.864 0 1.723.282 2.351.829.472.41.559.92 1.07 1.302-.318-3.768-1.986-6.741-4.166-8.848-2.207-2.135-5.213-3.654-9.073-4.028-.022-.467.061-1.041-.053-1.417-.228-.218-.473-.318-.699-.318" fill="#206FAC" sketch:type="MSShapeGroup"/><path d="M16.287 85.571l.277.027c3.195.311 5.873 1.492 7.964 3.516.839.81 1.792 1.968 2.513 3.512l-.479-.018c-1.284 0-2.506.422-3.451 1.197l-.101.089c-.982-.79-2.325-1.258-3.7-1.258-1.311 0-2.476.433-3.338 1.216-.898-.785-2.163-1.18-3.066-1.26-.17-.016-.337-.022-.499-.022-1.308 0-2.554.474-3.524 1.316-.942-.817-2.206-1.268-3.557-1.268l-.413.014.085-.173c2.035-4.078 5.512-6.366 10.337-6.802l.951-.086m-.296-3.571c-.618 0-1.109.738-.821 1.792-5.859.53-9.696 3.546-11.832 7.828-.716 1.435-1.409 3.107-1.353 4.991.46-.462.581-.958 1.072-1.361.618-.507 1.443-.759 2.269-.759.863 0 1.724.273 2.35.818.349.304.682 1.306 1.228 1.306l.067-.004c.328-.044.554-.697.733-.904.587-.698 1.519-1.265 2.704-1.265l.336.015c.905.08 2.23.661 2.426 1.418.189.748 0 1.864 0 2.78v5.56c0 .905.144 1.973-.057 2.723-.252.945-1.113 1.413-1.972 1.413-.809 0-1.62-.415-1.918-1.241-.263-.737-.073-1.413-.73-1.533l-.287-.028c-1.522 0-.121 2.863.173 3.203.563.658 1.596 1.248 2.736 1.248h.022c2.051-.009 3.444-1.566 3.606-3.345.31-3.328-.229-7.15 0-10.836.562-.927 1.553-1.311 2.568-1.311 1.152 0 2.335.495 2.952 1.254.306.372.324.85.763.85l.028-.001c.484-.016.872-1.055 1.241-1.361.632-.518 1.451-.77 2.267-.77.864 0 1.723.282 2.351.829.472.41.559.92 1.07 1.302-.318-3.768-1.986-6.741-4.166-8.848-2.207-2.135-5.213-3.654-9.073-4.028-.022-.467.061-1.041-.053-1.417-.228-.218-.473-.318-.699-.318" fill="#fff" sketch:type="MSShapeGroup"/><path d="M16.287 45.571l.277.027c3.195.311 5.873 1.492 7.964 3.516.839.81 1.792 1.968 2.513 3.512l-.479-.018c-1.284 0-2.506.422-3.451 1.197l-.101.089c-.982-.79-2.325-1.258-3.7-1.258-1.311 0-2.476.433-3.338 1.216-.898-.785-2.163-1.18-3.066-1.26-.17-.016-.337-.022-.499-.022-1.308 0-2.554.474-3.524 1.316-.942-.817-2.206-1.268-3.557-1.268l-.413.014.085-.173c2.035-4.078 5.512-6.366 10.337-6.802l.951-.086m-.296-3.571c-.618 0-1.109.738-.821 1.792-5.859.53-9.696 3.546-11.832 7.828-.716 1.435-1.409 3.107-1.353 4.991.46-.462.581-.958 1.072-1.361.618-.507 1.443-.759 2.269-.759.863 0 1.724.273 2.35.818.349.304.682 1.306 1.228 1.306l.067-.004c.328-.044.554-.697.733-.904.587-.698 1.519-1.265 2.704-1.265l.336.015c.905.08 2.23.661 2.426 1.418.189.748 0 1.864 0 2.78v5.56c0 .905.144 1.973-.057 2.723-.252.945-1.113 1.413-1.972 1.413-.809 0-1.62-.415-1.918-1.241-.263-.737-.073-1.413-.73-1.533l-.287-.028c-1.522 0-.121 2.863.173 3.203.563.658 1.596 1.248 2.736 1.248h.022c2.051-.009 3.444-1.566 3.606-3.345.31-3.328-.229-7.15 0-10.836.562-.927 1.553-1.311 2.568-1.311 1.152 0 2.335.495 2.952 1.254.306.372.324.85.763.85l.028-.001c.484-.016.872-1.055 1.241-1.361.632-.518 1.451-.77 2.267-.77.864 0 1.723.282 2.351.829.472.41.559.92 1.07 1.302-.318-3.768-1.986-6.741-4.166-8.848-2.207-2.135-5.213-3.654-9.073-4.028-.022-.467.061-1.041-.053-1.417-.228-.218-.473-.318-.699-.318" fill="#67737B" sketch:type="MSShapeGroup"/><path d="M16.287 5.571l.277.027c3.195.311 5.873 1.492 7.964 3.516.839.81 1.792 1.968 2.513 3.512l-.479-.018c-1.284 0-2.506.422-3.451 1.197l-.101.089c-.982-.79-2.325-1.258-3.7-1.258-1.311 0-2.476.433-3.338 1.216-.898-.785-2.163-1.18-3.066-1.26-.17-.016-.337-.022-.499-.022-1.308 0-2.554.474-3.524 1.316-.942-.817-2.206-1.268-3.557-1.268l-.413.014.085-.173c2.035-4.078 5.512-6.366 10.337-6.802l.951-.086m-.296-3.571c-.618 0-1.109.738-.821 1.792-5.859.53-9.696 3.546-11.832 7.828-.716 1.435-1.409 3.107-1.353 4.991.46-.462.581-.958 1.072-1.361.618-.507 1.443-.759 2.269-.759.863 0 1.724.273 2.35.818.349.304.682 1.306 1.228 1.306l.067-.004c.328-.044.554-.697.733-.904.587-.698 1.519-1.265 2.704-1.265l.336.015c.905.08 2.23.661 2.426 1.418.189.748 0 1.864 0 2.78v5.56c0 .905.144 1.973-.057 2.723-.252.945-1.113 1.413-1.972 1.413-.809 0-1.62-.415-1.918-1.241-.263-.737-.073-1.413-.73-1.533l-.287-.028c-1.522 0-.121 2.863.173 3.203.563.658 1.596 1.248 2.736 1.248h.022c2.051-.009 3.444-1.566 3.606-3.345.31-3.328-.229-7.15 0-10.836.562-.927 1.553-1.311 2.568-1.311 1.152 0 2.335.495 2.952 1.254.306.372.324.85.763.85l.028-.001c.484-.016.872-1.055 1.241-1.361.632-.518 1.451-.77 2.267-.77.864 0 1.723.282 2.351.829.472.41.559.92 1.07 1.302-.318-3.768-1.986-6.741-4.166-8.848-2.207-2.135-5.213-3.654-9.073-4.028-.022-.467.061-1.041-.053-1.417-.228-.218-.473-.318-.699-.318" fill="#3A434E" sketch:type="MSShapeGroup"/></g></svg>
